X: 24866
T: Magic Fiddle, The
R: reel
M: 4/4
K: Aminor
E3G A2AB|cBcd eaga|^f2d2 d3e|^fefg fedA|
E3G A2AB|cBcd eaga|^f2d2 g2f/g/f|ecBc A4:|
|:e3A A2(=f2|f2)ef edcA|B3G DGBG|BdcB AGEG|
e3A A2(=f2|f2)ef edcA|BBaB BgBB|ecBc A4:|

